202404-ahaslides-april/assets/images/icon-check-blue.svg

<svg width="35" height="35" viewBox="0 0 35 35" fill="none" xmlns="http://www.w3.org/2000/svg">
<ellipse cx="16.9355" cy="17.2335" rx="17.3662" ry="17.1842" fill="#064184"/>
<path d="M14.7491 22.609C14.4693 22.609 14.19 22.505 13.9763 22.2966L8.83105 17.2781L10.3767 15.77L14.7491 20.0347L23.4939 11.5054L25.0395 13.0135L15.5219 22.2966C15.3082 22.505 15.0289 22.609 14.7491 22.609Z" fill="white" stroke="white"/>
</svg>

<svg xmlns="http://www.w3.org/2000/svg" width="35" height="35" fill="none" viewBox="0 0 35 35">
  <ellipse cx="16.936" cy="17.233" fill="#064184" rx="17.366" ry="17.184"/>
  <path fill="#fff" stroke="#fff" d="M14.75 22.609c-.28 0-.56-.104-.774-.312l-5.145-5.019 1.546-1.508 4.372 4.265 8.745-8.53 1.546 1.508-9.518 9.284a1.103 1.103 0 0 1-.773.312Z"/>
</svg>
